icon/lg/unrealengine-icon.svg

<?xml version="1.0" encoding="UTF-8"?>
<svg viewBox="0 0 256 256" version="1.1" xmlns="http://www.w3.org/2000/svg" xmlns:xlink="http://www.w3.org/1999/xlink" preserveAspectRatio="xMidYMid" height="1em" width="1em">
  <g>
    <path d="M127.99215,1.60843828e-15 C161.940499,-0.00416198102 194.499837,13.4788484 218.506417,37.4824842 C242.512997,61.4861199 256,94.0438036 256,127.992153 C256.004335,198.684601 198.700297,255.995667 128.007849,256 C57.3154014,256.004337 0.0043351426,198.700299 0,128.007851 C-0.00429179118,58.022328 56.1593525,1.15189662 125.875437,0.0172791433 L127.99215,1.60843828e-15 Z M175.007469,14.4630543 C129.088575,-4.55631518 76.2341352,5.95840285 41.0906902,41.1040928 C5.94724528,76.2497828 -4.56409642,129.104894 14.4582063,175.022573 C33.480509,220.940252 78.2902265,250.877526 127.99215,250.874351 C195.855049,250.870016 250.866499,195.855052 250.866499,127.992153 C250.866499,78.2902288 220.926363,33.4824238 175.007469,14.4630543 Z M116.382903,50.5343738 C105.668486,56.6411991 99.6401542,66.6099242 99.6401542,74.9773737 C99.6401542,82.4895538 102.180493,85.2976762 104.837806,85.9670892 L105.122855,86.0307451 C105.170401,86.0400294 105.217957,86.0486609 105.265508,86.0566542 L105.550658,86.0970733 C105.883019,86.1355672 106.213826,86.1442227 106.538347,86.1280502 L106.814858,86.1082246 L106.814858,86.1082246 L107.087627,86.0769395 C107.13274,86.0708093 107.17767,86.0642308 107.222402,86.0572187 L107.488318,86.0100591 L107.488318,86.0100591 L107.748836,85.9531929 L107.748836,85.9531929 L108.003295,85.8873214 L108.003295,85.8873214 L108.251032,85.8131456 L108.251032,85.8131456 L108.491384,85.7313668 L108.491384,85.7313668 L108.72369,85.6426861 L108.72369,85.6426861 L108.947287,85.5478047 L108.947287,85.5478047 L109.161512,85.4474238 L109.161512,85.4474238 L109.365704,85.3422445 L109.365704,85.3422445 L109.559199,85.232968 L109.559199,85.232968 L109.741336,85.1202955 L109.741336,85.1202955 L109.911452,85.0049281 L109.911452,85.0049281 L110.068885,84.887567 C110.09403,84.8678797 110.118619,84.8481385 110.142638,84.828358 L110.142638,162.474522 C110.548606,163.450073 111.076066,164.37049 111.712516,165.213959 C113.889833,168.224977 117.392656,169.992483 121.108235,169.954991 C123.637982,169.954991 126.401835,169.055164 129.008096,167.816441 L129.656151,167.500025 C130.085697,167.284807 130.509958,167.061473 130.927122,166.832621 L131.547317,166.485529 L131.547317,166.485529 L132.155506,166.132106 L132.155506,166.132106 L132.750328,165.774302 L132.750328,165.774302 L133.330423,165.414063 L133.330423,165.414063 L133.894432,165.053337 L133.894432,165.053337 L134.440993,164.694072 L134.440993,164.694072 L134.968748,164.338215 L134.968748,164.338215 L135.722141,163.815081 L135.722141,163.815081 L136.425568,163.310572 L136.425568,163.310572 L137.074438,162.83126 L137.074438,162.83126 L137.664161,162.383721 L137.664161,162.383721 L138.190148,161.974526 L138.190148,161.974526 L139.032549,161.297465 L139.032549,161.297465 L139.750536,160.692711 L139.750536,160.692711 L139.750536,97.8190982 C139.750536,91.4218455 134.931011,83.6901965 130.103636,81.0528015 L130.565963,80.9875423 L130.565963,80.9875423 L131.113451,80.9293073 L131.113451,80.9293073 L131.684781,80.8846189 L131.684781,80.8846189 L132.184245,80.8574386 L132.184245,80.8574386 L132.73967,80.8394234 L132.73967,80.8394234 L133.346676,80.8339341 L133.346676,80.8339341 L133.77784,80.8388931 L133.77784,80.8388931 L134.228683,80.8519087 L134.228683,80.8519087 L134.697908,80.8739766 L134.697908,80.8739766 L135.184217,80.9060928 L135.184217,80.9060928 L135.686311,80.9492529 L135.686311,80.9492529 L136.202894,81.0044527 C136.377359,81.02497 136.554022,81.0476598 136.732667,81.0726882 L137.274331,81.154955 C137.365527,81.1698907 137.457165,81.1854526 137.549217,81.2016613 L138.106286,81.3068423 C140.539923,81.7977026 143.217116,82.7539005 145.66259,84.5400643 L145.943705,84.7498641 C147.239096,83.1633893 148.61727,81.6463495 150.072484,80.2050674 C158.10241,72.3164306 165.906666,67.2535741 173.281167,63.8822612 L174.26187,63.4426772 C176.055089,62.6547853 177.822088,61.9649562 179.559884,61.3566229 L180.504859,61.0327873 C180.818874,60.9274698 181.131905,60.8247468 181.443934,60.7245188 L182.377003,60.4312197 C182.687012,60.3358819 182.996003,60.2429395 183.303956,60.1522928 L184.224688,59.8871404 C184.377618,59.8440631 184.530285,59.8015347 184.682686,59.759543 L185.593883,59.5139324 L185.593883,59.5139324 L186.498589,59.2806027 L186.498589,59.2806027 L187.396696,59.0589565 L187.396696,59.0589565 L188.288098,58.8483964 L188.288098,58.8483964 L189.172686,58.6483248 L189.172686,58.6483248 L190.050353,58.4581444 L190.050353,58.4581444 L190.920991,58.2772577 L190.920991,58.2772577 L191.784494,58.1050672 L191.784494,58.1050672 L192.640754,57.9409755 L192.640754,57.9409755 L193.911326,57.7087161 L193.386528,58.1387207 L193.386528,58.1387207 L192.847438,58.5978209 L192.847438,58.5978209 L192.145134,59.2153456 L192.145134,59.2153456 L191.521909,59.7796991 L191.521909,59.7796991 L190.824245,60.4286565 L190.824245,60.4286565 L190.321457,60.9073424 L190.321457,60.9073424 L189.791098,61.4221984 L189.791098,61.4221984 L189.235375,61.9726516 L189.235375,61.9726516 L188.656493,62.5581294 L188.656493,62.5581294 L188.056657,63.1780592 C187.955061,63.28422 187.852684,63.3917924 187.749571,63.5007645 L187.122441,64.1712983 C186.804832,64.514868 186.481434,64.8708203 186.153486,65.2388329 L185.491894,65.9908434 C185.158432,66.3747935 184.821249,66.7705893 184.481584,67.1779085 L183.799313,68.0078164 C177.63572,75.6135511 170.936162,86.8833283 170.936162,99.9384335 L170.944955,104.837954 L170.944955,104.837954 L171.006795,116.935551 L171.006795,116.935551 L171.399276,161.823023 L171.399276,161.823023 C175.833116,166.08179 181.373579,164.942601 187.276868,161.216332 L187.899575,160.814659 L187.899575,160.814659 L188.524769,160.394604 C188.733561,160.251603 188.942734,160.10566 189.152258,159.956896 L189.781849,159.502263 L189.781849,159.502263 L190.413348,159.031434 L190.413348,159.031434 L191.046564,158.545137 L191.046564,158.545137 L191.681303,158.044101 L191.681303,158.044101 L192.317373,157.529054 L192.317373,157.529054 L192.954581,157.000725 L192.954581,157.000725 L193.592734,156.459843 L193.592734,156.459843 L194.231639,155.907136 L194.231639,155.907136 L194.871104,155.343332 L194.871104,155.343332 L195.510935,154.76916 L195.510935,154.76916 L196.150941,154.185349 L196.150941,154.185349 L197.110854,153.293152 L197.110854,153.293152 L198.070073,152.383365 L198.070073,152.383365 L199.027949,151.458446 L199.027949,151.458446 L199.665466,150.834641 L199.665466,150.834641 L200.937068,149.573048 L200.937068,149.573048 L202.327618,148.171005 L203.709046,146.760047 L204.052738,146.406821 C204.008624,146.619697 203.961465,146.839235 203.91115,147.065202 L203.750623,147.762158 C203.693883,148.00075 203.633876,148.245539 203.570491,148.496289 L203.370091,149.266196 C203.334965,149.397417 203.298966,149.53007 203.262081,149.664127 L203.030029,150.485071 L203.030029,150.485071 L202.776043,151.33829 L202.776043,151.33829 L202.49946,152.222383 C198.417975,164.959129 187.333145,186.569009 160.731955,199.139022 L148.172932,185.010121 L126.979579,206.329063 C102.518195,206.000064 79.6173649,194.253443 65.0792907,174.578282 C67.334047,175.279592 69.6625781,175.716851 72.0181514,175.88128 L72.2042685,175.883349 L72.2042685,175.883349 L72.5776162,175.879384 C72.6399184,175.877786 72.702244,175.875706 72.76457,175.873128 L73.1383457,175.851512 L73.1383457,175.851512 L73.5110229,175.817021 C76.485095,175.487209 79.2474394,173.835954 79.2474394,168.816829 L79.2474394,111.320049 C79.3526307,108.319674 78.0283439,105.44727 75.6784276,103.578792 C73.4124369,101.777046 70.4518385,101.114791 67.6434405,101.767851 L67.3320656,101.845835 C63.844439,102.643804 60.6047509,106.253396 57.877394,110.574981 L57.4014679,111.344578 C57.2446345,111.603288 57.0896277,111.864035 56.9365013,112.126391 L56.4828171,112.917859 L56.4828171,112.917859 L56.0407382,113.716416 L56.0407382,113.716416 L55.6105875,114.519498 L55.6105875,114.519498 L55.1926878,115.324541 L55.1926878,115.324541 L54.7873622,116.12898 L54.7873622,116.12898 L54.3949334,116.930253 L54.3949334,116.930253 L54.0157243,117.725794 L54.0157243,117.725794 L53.4724041,118.902749 L53.4724041,118.902749 L53.1276571,119.672743 L53.1276571,119.672743 L52.6375434,120.799358 L52.6375434,120.799358 L52.1808067,121.884231 L52.1808067,121.884231 L51.7585367,122.918707 L51.7585367,122.918707 L51.3718231,123.894131 L51.3718231,123.894131 L51.0217557,124.801851 L51.0217557,124.801851 L50.613888,125.891867 L50.613888,125.891867 L50.2756894,126.825619 L50.2756894,126.825619 L49.8186326,128.142282 L49.8186326,128.142282 L49.6709385,128.588706 L49.6709385,128.588706 C49.4501268,105.691307 59.3140708,83.8562789 76.641442,68.8862472 C88.3338931,58.9771775 99.810329,54.2524727 109.487308,51.8989117 L110.448949,51.6713552 L110.448949,51.6713552 L111.398242,51.4589812 L111.398242,51.4589812 L112.334835,51.2611645 C112.489855,51.2293734 112.644332,51.1981628 112.798258,51.1675197 L113.715141,50.9903668 C113.866833,50.9619415 114.017959,50.9340577 114.168512,50.9067023 L115.064893,50.7488065 L115.064893,50.7488065 L115.947166,50.6029674 C116.093017,50.5796309 116.238265,50.5567707 116.382903,50.5343738 Z" fill="#000000"/>
  </g>
</svg>

<svg width="256" height="256" xmlns="http://www.w3.org/2000/svg" preserveAspectRatio="xMidYMid"><path d="M127.992 0A127.992 127.992 0 0 1 256 127.992c.004 70.693-57.3 128.004-127.992 128.008C57.315 256.004.004 198.7 0 128.008-.004 58.022 56.16 1.152 125.875.018L127.992 0Zm47.015 14.463C129.09-4.557 76.234 5.958 41.091 41.104c-35.144 35.146-45.655 88-26.633 133.919 19.023 45.917 63.832 75.855 113.534 75.851 67.863-.004 122.874-55.019 122.874-122.882 0-49.702-29.94-94.51-75.859-113.529Zm-58.624 36.071C105.668 56.641 99.64 66.61 99.64 74.977c0 7.513 2.54 10.32 5.198 10.99l.285.064.143.026.285.04c.332.039.663.047.987.031l.277-.02.273-.031.134-.02.266-.047.26-.057.255-.066.248-.074.24-.082.233-.088.223-.095.215-.1.204-.106.193-.109.182-.113.17-.115.158-.117.074-.06v77.647c.406.975.933 1.895 1.57 2.739a11.452 11.452 0 0 0 9.395 4.741c2.53 0 5.294-.9 7.9-2.139l.648-.316c.43-.215.854-.439 1.271-.667l.62-.347.609-.354.594-.358.58-.36.564-.36.547-.36.528-.356.753-.523.704-.504.648-.48.59-.447.526-.41.843-.677.718-.604V97.819c0-6.397-4.82-14.129-9.647-16.766l.462-.065.547-.059.572-.044.5-.028.555-.018.607-.005.43.005.452.013.469.022.486.032.502.043.517.055c.174.021.351.044.53.069l.541.082c.092.015.183.03.275.047l.557.105c2.434.49 5.111 1.447 7.557 3.233l.28.21a58.242 58.242 0 0 1 4.13-4.545c8.03-7.889 15.834-12.951 23.208-16.323l.98-.44a73.642 73.642 0 0 1 5.299-2.085l.945-.324c.314-.106.627-.208.939-.308l.933-.294c.31-.095.619-.188.927-.279l.92-.265.459-.127.91-.246.906-.233.898-.222.891-.21.885-.2.877-.19.871-.182.863-.172.857-.164 1.27-.232-.524.43-.54.459-.702.617-.623.565-.698.649-.503.478-.53.515-.556.55-.579.586-.6.62-.306.323-.628.67c-.317.344-.64.7-.969 1.068l-.661.752c-.334.384-.67.78-1.01 1.187l-.683.83c-6.163 7.606-12.863 18.875-12.863 31.93l.009 4.9.062 12.098.392 44.887c4.434 4.259 9.975 3.12 15.878-.607l.623-.401.625-.42c.209-.143.418-.29.627-.438l.63-.455.631-.47.634-.487.634-.5.636-.516.638-.528.638-.541.639-.553.64-.564.639-.574.64-.584.96-.892.96-.91.957-.925.637-.623 1.272-1.262 1.39-1.402 1.382-1.411.344-.353a45.66 45.66 0 0 1-.142.658l-.16.697c-.057.239-.117.484-.18.734l-.2.77a59.36 59.36 0 0 1-.109.398l-.232.821-.254.853-.277.884c-4.081 12.737-15.166 34.347-41.767 46.917l-12.56-14.129-21.192 21.32a78.274 78.274 0 0 1-61.9-31.752 30.518 30.518 0 0 0 6.938 1.303l.186.002.374-.004.187-.006.373-.021.373-.035c2.974-.33 5.736-1.981 5.736-7V111.32a9.466 9.466 0 0 0-11.604-9.552l-.31.078c-3.489.798-6.728 4.407-9.456 8.729l-.476.77c-.156.258-.311.519-.464.781l-.454.792-.442.798-.43.803-.418.806-.406.804-.392.801-.38.796-.543 1.177-.344.77-.49 1.126-.457 1.085-.422 1.035-.387.975-.35.908-.408 1.09-.338.934-.457 1.316-.148.447a77.905 77.905 0 0 1 26.97-59.703c11.693-9.909 23.17-14.634 32.846-16.987l.962-.228.95-.212.936-.198.463-.093.917-.178a83.8 83.8 0 0 1 .454-.083l.896-.158.882-.146.436-.069Z"/></svg>
